assets/images/substrate.svg

<svg width="773" height="149" viewBox="0 0 773 149" fill="none" xmlns="http://www.w3.org/2000/svg">
<path d="M224.691 53.3529C172.123 47.888 118.601 38.8194 65.5602 38.8194C56.7499 38.8194 43.4754 35.368 38.3439 44.0228C37.4645 45.506 42.1787 45.2788 42.7766 45.2788C50.4006 45.2788 27.5284 45.2788 19.9043 45.2788C13.9831 45.2788 -2.2766 43.6639 11.2164 43.6639C22.8218 43.6639 33.6931 44.7736 45.2588 45.9965C61.5096 47.7146 77.3976 50.1698 93.5743 52.6352C145.84 60.6008 198.415 65.0883 250.932 70.9366C379.716 85.2779 507.14 100.231 636.924 96.8637C646.629 96.6119 640.257 90.7659 634.973 90.4941C620.027 89.725 604.991 90.9518 590.027 90.2249C554.33 88.491 518.519 83.3508 482.935 79.9977C430.687 75.0743 378.288 70.1867 326.286 63.0419C292.77 58.437 260.485 59.8306 226.907 57.3003C218.565 56.6716 210.651 54.2737 202.439 53.4426C198.792 53.0735 189.469 53.3529 199.868 53.3529C282.822 53.3529 365.757 66.9236 448.626 70.8469C505.556 73.5422 562.397 76.8547 619.371 77.5754C620.884 77.5945 629.868 79.2674 623.271 81.1639C613.247 84.0458 601.446 83.6636 591.268 83.7656C559.01 84.0888 526.585 82.931 494.371 81.3433C377.235 75.5704 262.469 50.294 146.5 34.6926C127.045 32.0754 107.57 29.3982 88.0778 27.067C82.2683 26.3722 74.6863 26.8387 69.2836 24.0168C64.574 21.557 60.6323 17.3924 56.0744 14.5969C50.9873 11.477 34.1607 8.30802 39.9397 6.88164C48.7245 4.71336 64.0665 7.1738 72.2091 7.59934C99.4462 9.02278 126.446 12.1295 153.503 15.4941C206.357 22.0665 259.055 29.7956 312.013 35.5001C371.826 41.9429 431.983 46.128 491.711 53.1735C517.442 56.2087 542.81 60.8618 568.662 63.0419C579.472 63.9535 590.615 63.2667 600.488 67.707C601.813 68.3032 605.48 66.6631 604.832 67.9761C602.679 72.333 595.276 69.231 590.47 69.5012C566.441 70.8521 542.366 71.0645 518.307 71.1161C437.88 71.2885 357.139 72.8397 276.73 70.8469C240.946 69.9601 205.997 64.5787 170.613 61.0682C169.745 60.9821 155.716 57.9153 161.571 58.1974C177.438 58.9621 195.07 64.5385 210.507 68.0658C254.574 78.1357 298.386 88.1075 342.953 95.8768C398.416 105.546 454.598 110.032 510.594 115.345C565.031 120.509 619.827 122.791 674.512 122.791C675.726 122.791 685.814 122.134 686.037 123.15C686.743 126.364 670.678 127.388 669.991 127.366C647.859 126.655 625.517 122.943 603.413 121.266C558.902 117.887 514.303 120.48 469.903 114.717C439.606 110.784 409.32 107.625 378.857 105.207C358.929 103.625 418.825 106.968 438.697 109.154C492.213 115.041 546.556 122.521 598.449 137.145C620.006 143.22 640.282 142.169 662.633 142.169C684.885 142.169 707.136 142.169 729.388 142.169C733.025 142.169 765.737 144.497 766.977 141.361C767.422 140.235 761.374 140.522 760.86 140.464C756.868 140.015 757.607 136.997 755.363 136.068C746.288 132.311 729.465 135.711 720.08 135.351C683.856 133.96 651.33 126.046 616.445 116.959C543.897 98.0632 471.675 91.4246 397.385 84.3936C395.408 84.2064 372.863 81.4795 374.868 81.1639C387.503 79.175 403.29 83.7127 415.825 85.0216C521.701 96.076 628.353 94.7218 734.353 104.938C737.617 105.252 760.497 103.413 746.143 103.413C709.301 103.413 672.431 103.852 635.594 103.233C601.516 102.661 567.738 97.4313 533.733 96.9534C525.757 96.8413 517.773 96.9534 509.796 96.9534C493.573 96.9534 542.244 96.8453 558.467 97.0431C584.693 97.3629 610.15 101.414 636.215 103.233C654.159 104.486 672.282 104.086 690.115 106.642C707.263 109.101 724.104 110.413 741.356 111.577C746.17 111.901 756.65 116.331 745.966 116.331C721.468 116.331 696.971 116.331 672.473 116.331C669.033 116.331 652.656 115.933 664.938 114.358C688.136 111.382 711.751 113.854 735.062 113.012C742.39 112.747 749.623 111.719 756.959 111.487C764.688 111.242 741.552 109.951 733.821 109.782C653.786 108.041 572.854 101.938 493.307 93.7237C451.666 89.4238 410.116 84.9115 369.903 72.7309C343.395 64.7015 317.483 55.4273 291.357 46.2656C282.384 43.1188 271.289 40.5005 263.343 34.8721C262.578 34.3298 265.069 33.9427 266.003 33.9749C284.685 34.6194 303.601 38.4968 322.031 41.152C352.918 45.6016 383.857 49.8269 414.584 55.3266C428.655 57.8451 443.074 57.7271 457.048 60.6197C487.246 66.8703 395.406 61.6323 364.584 61.4271C323.107 61.1509 281.095 62.9818 240.294 54.3398C239.797 54.2345 229.833 52.1051 229.833 54.1603C229.833 55.9143 234.731 53.7572 234.265 56.5826C232.448 67.6199 185.587 58.3006 180.897 58.1974C159.581 57.7285 141.082 53.9698 120.968 47.7907C106.773 43.4301 90.9084 43.1362 76.2871 39.5371C65.5214 36.8871 54.5251 35.2434 43.8404 32.3601C40.7257 31.5196 40.129 28.2077 37.6347 26.6185C34.3583 24.5309 30.3003 26.7711 26.9078 24.1962C23.7127 21.7713 12.719 17.8266 16.7128 17.8266C35.2757 17.8266 54.0788 21.3026 72.4751 23.4785C84.205 24.866 95.8556 25.9008 107.67 25.9008C118.105 25.9008 103.004 25.7577 100.755 25.5419C84.8672 24.0173 69.0006 19.6749 53.9467 14.5969" stroke="#381067" stroke-width="11" stroke-linecap="round"/>
</svg>

<svg width="773" height="149" viewBox="0 0 773 149" fill="none" xmlns="http://www.w3.org/2000/svg"><path d="M224.691 53.353c-52.568-5.465-106.09-14.534-159.13-14.534-8.811 0-22.086-3.451-27.217 5.204-.88 1.483 3.835 1.256 4.433 1.256H19.904c-5.92 0-22.18-1.615-8.688-1.615 11.606 0 22.477 1.11 34.043 2.332 16.25 1.719 32.139 4.174 48.315 6.64 52.266 7.965 104.841 12.452 157.358 18.3 128.784 14.342 256.208 29.295 385.992 25.928 9.705-.252 3.333-6.098-1.951-6.37-14.946-.769-29.982.458-44.946-.27-35.697-1.733-71.508-6.873-107.092-10.226-52.248-4.924-104.647-9.811-156.649-16.956-33.516-4.605-65.801-3.211-99.379-5.742-8.342-.628-16.256-3.026-24.468-3.857-3.647-.37-12.97-.09-2.571-.09 82.954 0 165.889 13.57 248.758 17.494 56.93 2.695 113.771 6.008 170.745 6.728 1.513.02 10.497 1.692 3.9 3.589-10.024 2.882-21.825 2.5-32.003 2.602-32.258.323-64.683-.835-96.897-2.423C377.235 75.57 262.469 50.294 146.5 34.693c-19.455-2.618-38.93-5.295-58.422-7.626-5.81-.695-13.392-.228-18.794-3.05-4.71-2.46-8.652-6.625-13.21-9.42-5.087-3.12-21.913-6.289-16.134-7.715 8.785-2.169 24.127.292 32.27.717 27.236 1.424 54.236 4.53 81.293 7.895 52.854 6.573 105.552 14.302 158.51 20.006 59.813 6.443 119.97 10.628 179.698 17.673 25.731 3.036 51.099 7.689 76.951 9.869 10.81.911 21.953.225 31.826 4.665 1.325.596 4.992-1.044 4.344.27-2.153 4.356-9.556 1.254-14.362 1.524-24.029 1.351-48.104 1.563-72.163 1.615-80.427.172-161.168 1.724-241.577-.27-35.784-.886-70.733-6.267-106.117-9.778-.868-.086-14.897-3.153-9.042-2.87 15.867.764 33.499 6.34 48.936 9.868 44.067 10.07 87.879 20.041 132.446 27.81 55.463 9.67 111.645 14.156 167.641 19.469 54.437 5.164 109.233 7.446 163.918 7.446 1.214 0 11.302-.657 11.525.359.706 3.214-15.359 4.238-16.046 4.216-22.132-.711-44.474-4.423-66.578-6.1-44.511-3.379-89.11-.786-133.51-6.549a1833.084 1833.084 0 0 0-91.046-9.51c-19.928-1.582 39.968 1.761 59.84 3.947 53.516 5.887 107.859 13.367 159.752 27.991 21.557 6.075 41.833 5.024 64.184 5.024h66.755c3.637 0 36.349 2.328 37.589-.808.445-1.126-5.603-.839-6.117-.897-3.992-.449-3.253-3.467-5.497-4.396-9.075-3.757-25.898-.357-35.283-.717-36.224-1.391-68.75-9.305-103.635-18.392-72.548-18.896-144.77-25.534-219.06-32.565-1.977-.188-24.522-2.915-22.517-3.23 12.635-1.989 28.422 2.549 40.957 3.858 105.876 11.054 212.528 9.7 318.528 19.916 3.264.314 26.144-1.525 11.79-1.525-36.842 0-73.712.439-110.549-.18-34.078-.572-67.856-5.802-101.861-6.28-7.976-.112-15.96 0-23.937 0-16.223 0 32.448-.108 48.671.09 26.226.32 51.683 4.371 77.748 6.19 17.944 1.253 36.067.853 53.9 3.409 17.148 2.459 33.989 3.771 51.241 4.935 4.814.324 15.294 4.754 4.61 4.754h-73.493c-3.44 0-19.817-.398-7.535-1.973 23.198-2.976 46.813-.504 70.124-1.346 7.328-.265 14.561-1.293 21.897-1.525 7.729-.245-15.407-1.536-23.138-1.705-80.035-1.741-160.967-7.844-240.514-16.058-41.641-4.3-83.191-8.813-123.404-20.993-26.508-8.03-52.42-17.304-78.546-26.465-8.973-3.147-20.068-5.765-28.014-11.394-.765-.542 1.726-.93 2.66-.897 18.682.644 37.598 4.522 56.028 7.177 30.887 4.45 61.826 8.675 92.553 14.175 14.071 2.518 28.49 2.4 42.464 5.293 30.198 6.25-61.642 1.012-92.464.807-41.477-.276-83.489 1.555-124.29-7.087-.497-.106-10.461-2.235-10.461-.18 0 1.754 4.898-.403 4.432 2.423-1.817 11.037-48.678 1.718-53.368 1.614-21.316-.469-39.815-4.227-59.929-10.406-14.195-4.36-30.06-4.655-44.68-8.254-10.767-2.65-21.763-4.294-32.448-7.177-3.114-.84-3.711-4.152-6.205-5.741-3.277-2.088-7.335.152-10.727-2.423-3.195-2.425-14.189-6.37-10.195-6.37 18.563 0 37.366 3.477 55.762 5.652 11.73 1.388 23.38 2.423 35.195 2.423 10.435 0-4.666-.143-6.915-.36-15.888-1.524-31.754-5.866-46.808-10.944" stroke="#381067" stroke-width="11" stroke-linecap="round"/></svg>
